modules/themify-icons/icons/layers.svg

<?xml version="1.0" encoding="utf-8"?>
<!-- Generated by IcoMoon.io -->
<!DOCTYPE svg PUBLIC "-//W3C//DTD SVG 1.1//EN" "http://www.w3.org/Graphics/SVG/1.1/DTD/svg11.dtd">
<svg version="1.1" xmlns="http://www.w3.org/2000/svg" xmlns:xlink="http://www.w3.org/1999/xlink" width="17" height="17" viewBox="0 0 17 17">
<g>
</g>
	<path d="M13 1h-13v11h13v-11zM12 11h-11v-9h11v9zM17 5v11h-13v-3.031h1v2.031h11v-9h-2.016v-1h3.016z" fill="#000000" />
</svg>

<svg xmlns="http://www.w3.org/2000/svg" width="17" height="17" viewBox="0 0 17 17"><path d="M13 1H0v11h13V1zm-1 10H1V2h11v9zm5-6v11H4v-3.031h1V15h11V6h-2.016V5H17z"/></svg>
